icon-themes/breeze_svg/cmd/sc_ellipsecut_unfilled.svg

<svg viewBox="0 0 16 16" xmlns="http://www.w3.org/2000/svg">/&gt;<path d="m8 3c-3.31371 0-6 2.23858-6 5s2.68629 5 6 5 6-2.23858 6-5zm-.3125 1.03125 5.28125 4.40625c-.273407 2.002476-2.392888 3.5625-4.96875 3.5625-2.76142 0-5-1.79086-5-4 0-2.1227953 2.0758024-3.8362443 4.6875-3.96875z" fill="#4d4d4d"/></svg>

<svg xmlns="http://www.w3.org/2000/svg" viewBox="0 0 16 16">
     />
 <path 
     style="fill:#4d4d4d" 
     d="M 8 3 C 4.68629 3 2 5.23858 2 8 C 2 10.76142 4.68629 13 8 13 C 11.31371 13 14 10.76142 14 8 L 8 3 z M 7.6875 4.03125 L 12.96875 8.4375 C 12.695343 10.439976 10.575862 12 8 12 C 5.23858 12 3 10.20914 3 8 C 3 5.8772047 5.0758024 4.1637557 7.6875 4.03125 z "
     />
 </svg>
